Pods/ProtonCore-UIFoundations/libraries/UIFoundations/Sources/Assets.xcassets/Images/IconSet/ic-camera.imageset/ic-camera.svg

<svg width="24" height="24" viewBox="0 0 24 24" fill="none" xmlns="http://www.w3.org/2000/svg">
<path fill-rule="evenodd" clip-rule="evenodd" d="M6.75 6H7.67705L8.09164 5.17082L9.17705 3L14.8229 3L15.9084 5.17082L16.3229 6H17.25H19.5C20.3284 6 21 6.67157 21 7.5V18C21 18.8284 20.3284 19.5 19.5 19.5H4.5C3.67157 19.5 3 18.8284 3 18V7.5C3 6.67157 3.67157 6 4.5 6H6.75ZM4.5 4.5H6.75L7.83541 2.32918C8.0895 1.821 8.60889 1.5 9.17705 1.5H14.8229C15.3911 1.5 15.9105 1.821 16.1646 2.32918L17.25 4.5H19.5C21.1569 4.5 22.5 5.84315 22.5 7.5V18C22.5 19.6569 21.1569 21 19.5 21H4.5C2.84315 21 1.5 19.6569 1.5 18V7.5C1.5 5.84315 2.84315 4.5 4.5 4.5ZM15.75 12C15.75 14.0711 14.0711 15.75 12 15.75C9.92893 15.75 8.25 14.0711 8.25 12C8.25 9.92893 9.92893 8.25 12 8.25C14.0711 8.25 15.75 9.92893 15.75 12ZM17.25 12C17.25 14.8995 14.8995 17.25 12 17.25C9.1005 17.25 6.75 14.8995 6.75 12C6.75 9.1005 9.1005 6.75 12 6.75C14.8995 6.75 17.25 9.1005 17.25 12Z" fill="#0C0C14"/>
</svg>

<svg xmlns="http://www.w3.org/2000/svg" width="24" height="24" viewBox="0 0 24 24">
  <g class="ic-camera">
    <path fill-rule="evenodd" d="M6.75 6h.927l.415-.83L9.177 3h5.646l1.085 2.17.415.83H19.5A1.5 1.5 0 0 1 21 7.5V18a1.5 1.5 0 0 1-1.5 1.5h-15A1.5 1.5 0 0 1 3 18V7.5A1.5 1.5 0 0 1 4.5 6h2.25ZM4.5 4.5h2.25l1.085-2.17a1.5 1.5 0 0 1 1.342-.83h5.646a1.5 1.5 0 0 1 1.342.83L17.25 4.5h2.25a3 3 0 0 1 3 3V18a3 3 0 0 1-3 3h-15a3 3 0 0 1-3-3V7.5a3 3 0 0 1 3-3ZM15.75 12a3.75 3.75 0 1 1-7.5 0 3.75 3.75 0 0 1 7.5 0Zm1.5 0a5.25 5.25 0 1 1-10.5 0 5.25 5.25 0 0 1 10.5 0Z" class="Icon"/>
  </g>
</svg>
